X:2
T:Sweet Lorraine
C:Parrish & Burwell
L:1/8
M:C
I:linebreak $
K:G
"G6" B2 B2"E7" B4 |"A7" z2 AB"D7" cd BA |"Em" G2 G2"G7" G4 |"C7" z2 FG"B7" AB GF |$
"E7" E2 E2"Eo" E4 |"Am" z2 DE"D7" FG AB ||1"G6" d8 "E7" x4|"A7" z4"Eb7" _B4 "D7" x4:|2$"G6" G8 "Am/G" x4|
"G6" e4"Go" x4"Dm" e2"G7" d2 ||"C6" cd e=f"E7" e2 d2 |"Am" c2"Ab7" c2"Gm" c4 "Gb7" x4|$
"F" cd e=f"E7" e2 d2 |"Am" c4"Ab7" x4"Gm" z4 "Gb7" x4|"F7" AB cd"E7" c2 B2 |"Eb7" A2 A2"D7" A4 |$
"F7" AB cd"E7" c2 B2 |"Eb7" A4"D7" "_D.C. al 3rd end." _B4 ||3"G6" G8 | z8 |]


